packages/core/src/svgs/tokens/mono/FIS.svg

<svg width="24" height="24" viewBox="0 0 24 24" fill="none" xmlns="http://www.w3.org/2000/svg">
<path d="M7.95 17.9928L7.8 18.0215C7.35 18.2356 6.47857 18.5715 5.40715 18.8072L6.05715 22H9.11433L10.5 17.6357C9.69283 17.7215 8.98567 17.8215 8.46428 17.9L8.02143 19.3715L7.95 17.9928ZM9.35 14.9787C9.9785 14.7857 10.6785 14.6357 11.4715 14.5857L12 12.9071L12.5 14.5715C13.4143 14.6143 14.0715 14.7857 14.6428 15.0072L12.65 9.14282H11.1072L9.34283 14.9787H9.35ZM15.65 18.0287L16.1072 19.3715L16.1715 18.1571L17.3143 18.4787L17.6715 18.5857C17.9572 18.6572 18.2715 18.7143 18.5785 18.7357L17.9072 22H14.7572L13.4215 17.6C14.1928 17.6928 14.9643 17.8572 15.65 18.0287ZM19.0785 16.3143C18.6928 16.2928 18.2215 16.2428 17.6643 16.15C17.1963 16.0698 16.7388 15.938 16.3 15.7572V15.7L18.8715 2H22L19.0715 16.3143H19.0785ZM4.93572 16.4787L2 2H5.12857L7.80715 15.5715L7.24285 15.8357C6.85715 16.0143 6.52143 16.1715 6.22143 16.2715C5.81428 16.4143 5.36428 16.4643 4.93572 16.4787Z" fill="white"/>
</svg>

<svg xmlns="http://www.w3.org/2000/svg" width="24" height="24" fill="none" viewBox="0 0 24 24">
    <path fill="#fff" d="m7.95 17.993-.15.029c-.45.214-1.321.55-2.393.785L6.057 22h3.057l1.386-4.364a47 47 0 0 0-2.036.264l-.443 1.472zm1.4-3.014a9 9 0 0 1 2.122-.393L12 12.907l.5 1.665c.914.042 1.572.214 2.143.435L12.65 9.143h-1.543l-1.764 5.836zm6.3 3.05.457 1.343.065-1.215 1.142.322.358.107c.285.071.6.128.906.15L17.908 22h-3.15l-1.336-4.4c.77.093 1.542.257 2.228.429m3.428-1.715a13 13 0 0 1-1.414-.164 6.4 6.4 0 0 1-1.364-.393V15.7L18.872 2H22l-2.928 14.314zm-14.142.165L2 2h3.129l2.678 13.572-.564.264c-.386.178-.722.336-1.022.435-.407.143-.857.193-1.285.208"/>
</svg>
